assets/img/icons/duotone-icons/Food/Bottle#1.svg

<?xml version="1.0" encoding="UTF-8"?>
<svg width="24px" height="24px" viewBox="0 0 24 24" version="1.1" xmlns="http://www.w3.org/2000/svg" xmlns:xlink="http://www.w3.org/1999/xlink">
    <!-- Generator: Sketch 52.2 (67145) - http://www.bohemiancoding.com/sketch -->
    <title>Stockholm-icons / Food / Bottle#1</title>
    <desc>Created with Sketch.</desc>
    <g id="Stockholm-icons-/-Food-/-Bottle#1" stroke="none" stroke-width="1" fill="none" fill-rule="evenodd">
        <rect id="bound" x="0" y="0" width="24" height="24"></rect>
        <path d="M6.2,9.73333333 L8.7,6.4 C8.88885438,6.14819416 9.1852427,6 9.5,6 L14.5,6 C14.8147573,6 15.1111456,6.14819416 15.3,6.4 L17.8,9.73333333 C17.9298221,9.9064295 18,10.1169631 18,10.3333333 L18,21 C18,22.1045695 17.1045695,23 16,23 L8,23 C6.8954305,23 6,22.1045695 6,21 L6,10.3333333 C6,10.1169631 6.07017787,9.9064295 6.2,9.73333333 Z M9,12 C8.44771525,12 8,12.4477153 8,13 L8,20 C8,20.5522847 8.44771525,21 9,21 L10,21 C10.5522847,21 11,20.5522847 11,20 L11,13 C11,12.4477153 10.5522847,12 10,12 L9,12 Z" id="Combined-Shape" fill="#335EEA"></path>
        <rect id="Rectangle" fill="#335EEA" opacity="0.3" x="9" y="1" width="6" height="3" rx="1"></rect>
    </g>
</svg>

<svg width="24" height="24" viewBox="0 0 24 24" xmlns="http://www.w3.org/2000/svg"><g fill="none" fill-rule="evenodd"><path d="M0 0h24v24H0z"/><path d="M6.2 9.733L8.7 6.4a1 1 0 01.8-.4h5a1 1 0 01.8.4l2.5 3.333a1 1 0 01.2.6V21a2 2 0 01-2 2H8a2 2 0 01-2-2V10.333a1 1 0 01.2-.6zM9 12a1 1 0 00-1 1v7a1 1 0 001 1h1a1 1 0 001-1v-7a1 1 0 00-1-1H9z" fill="#335EEA"/><rect fill="#335EEA" opacity=".3" x="9" y="1" width="6" height="3" rx="1"/></g></svg>
